icons/moodle/moodle-original.svg

<svg xmlns="http://www.w3.org/2000/svg" viewBox="0 0 128 128"><radialGradient id="a" cx="532.855" cy="-537.557" r="209.76" gradientTransform="matrix(1 0 0 -1 -297.6 -460.9)" gradientUnits="userSpaceOnUse"><stop offset="0" stop-color="#FAAF40"/><stop offset=".043" stop-color="#F9A538"/><stop offset=".112" stop-color="#F89D31"/><stop offset=".227" stop-color="#F89A2F"/><stop offset=".528" stop-color="#F7922D"/><stop offset="1" stop-color="#F37B28"/></radialGradient><path fill="url(#a)" d="M106.259 105.754v-38.779c0-8.164-3.397-12.244-10.034-12.244-6.629 0-10.034 4.08-10.034 12.244v38.779h-19.897v-38.779c0-8.164-3.228-12.244-9.862-12.244-6.633 0-10.036 4.08-10.036 12.244v38.779h-19.729v-40.986c0-8.504 2.891-14.801 8.844-19.223 5.102-3.91 12.246-5.777 20.92-5.777 9.015 0 15.478 2.207 19.727 6.801 3.57-4.594 10.207-6.801 19.897-6.801 8.844 0 15.819 1.867 20.922 5.777 5.951 4.422 8.843 10.719 8.843 19.223v41.152h-19.563v-.166z"/><path fill="#58595B" d="M28.539 49.627l-2.041 10.207c18.708 6.291 36.395.166 45.751-16.158-13.778-9.522-26.535.17-43.71 5.951"/><linearGradient id="b" gradientUnits="userSpaceOnUse" x1="324.268" y1="-509.952" x2="368.932" y2="-509.952" gradientTransform="matrix(1 0 0 -1 -297.6 -460.9)"><stop offset="0" stop-color="#929497"/><stop offset=".124" stop-color="#757578"/><stop offset=".279" stop-color="#575658"/><stop offset=".44" stop-color="#403E3F"/><stop offset=".609" stop-color="#302D2E"/><stop offset=".788" stop-color="#262223"/><stop offset="1" stop-color="#231F20"/></linearGradient><path fill="url(#b)" d="M28.539 47.08c-.681 3.91-1.192 7.65-1.872 11.563 17.857 6.125 35.375.85 44.73-15.137-11.909-13.776-25.17-2.383-42.858 3.574"/><linearGradient id="c" gradientUnits="userSpaceOnUse" x1="332.834" y1="-495.051" x2="351.377" y2="-521.534" gradientTransform="matrix(1 0 0 -1 -297.6 -460.9)"><stop offset="0" stop-color="#231F20"/><stop offset="1" stop-color="#231F20" stop-opacity="0"/></linearGradient><path fill="url(#c)" d="M49.799 51.668c-8.164-1.701-17.009 2.555-23.131 6.975-3.912-28.57 13.777-27.893 36.903-20.75-1.529 6.975-4.083 16.33-8.502 21.941-.169-3.744-1.869-6.293-5.27-8.166"/><linearGradient id="d" gradientUnits="userSpaceOnUse" x1="299.778" y1="-495.802" x2="381.412" y2="-495.802" gradientTransform="matrix(1 0 0 -1 -297.6 -460.9)"><stop offset="0" stop-color="#929497"/><stop offset=".124" stop-color="#757578"/><stop offset=".279" stop-color="#575658"/><stop offset=".44" stop-color="#403E3F"/><stop offset=".609" stop-color="#302D2E"/><stop offset=".788" stop-color="#262223"/><stop offset="1" stop-color="#231F20"/></linearGradient><path fill="url(#d)" d="M2.178 47.08c29.932-18.031 46.77-21.43 81.634-25-40.478 31.969-41.499 25-81.634 25"/><path stroke="#4A4A4C" stroke-width=".5" fill="none" d="M83.812 22.246l-32.145 23.299"/><path opacity=".23" fill="#231F20" enable-background="new" d="M45.545 34.66c.34 3.744-.511-3.572 0 0"/><path stroke="#A8ABAD" stroke-width=".5" fill="none" d="M2.178 47.08l49.489-1.535"/><path stroke="#F16922" stroke-width=".5" d="M42.484 35.002c-8.504 2.381-36.394 8.504-36.737 12.078-.849 6.631-.167 17.176-.167 17.176" fill="none"/><path fill="#F16922" d="M8.131 89.596c-3.063-7.652-6.804-16.158-2.384-26.703 2.893 9.863 2.384 17.347 2.384 26.703"/><path fill="#6D6E70" d="M41.076 33.844c.708-.25 1.384-.17 1.509.184.126.355-.344.846-1.052 1.096-.709.256-1.384.172-1.51-.184-.127-.352.344-.844 1.053-1.096z"/></svg>

<svg version="1.1" xmlns="http://www.w3.org/2000/svg" xmlns:xlink="http://www.w3.org/1999/xlink" viewBox="0 0 128 128">
		<radialGradient id="SVGID_1_" cx="532.8545" cy="-537.5571" r="209.7603" gradientTransform="matrix(1 0 0 -1 -297.5996 -460.9004)" gradientUnits="userSpaceOnUse">
		<stop  offset="0" style="stop-color:#FAAF40"/>
		<stop  offset="0.0432" style="stop-color:#F9A538"/>
		<stop  offset="0.1116" style="stop-color:#F89D31"/>
		<stop  offset="0.2269" style="stop-color:#F89A2F"/>
		<stop  offset="0.5276" style="stop-color:#F7922D"/>
		<stop  offset="1" style="stop-color:#F37B28"/>
	</radialGradient>
	<path fill="url(#SVGID_1_)" d="M106.259,105.754V66.975c0-8.164-3.397-12.244-10.034-12.244c-6.629,0-10.034,4.08-10.034,12.244
		v38.779H66.294V66.975c0-8.164-3.228-12.244-9.862-12.244c-6.633,0-10.036,4.08-10.036,12.244v38.779H26.667V64.768
		c0-8.504,2.891-14.801,8.844-19.223c5.102-3.91,12.246-5.777,20.92-5.777c9.015,0,15.478,2.207,19.727,6.801
		c3.57-4.594,10.207-6.801,19.897-6.801c8.844,0,15.819,1.867,20.922,5.777c5.951,4.422,8.843,10.719,8.843,19.223v41.152h-19.563
		V105.754z"/>
	<path fill="#58595B" d="M28.539,49.627c-0.681,3.404-1.361,6.807-2.041,10.207C45.206,66.125,62.893,60,72.249,43.676
		C58.471,34.154,45.714,43.846,28.539,49.627"/>

		<linearGradient id="SVGID_2_" gradientUnits="userSpaceOnUse" x1="324.2676" y1="-509.9517" x2="368.9315" y2="-509.9517" gradientTransform="matrix(1 0 0 -1 -297.5996 -460.9004)">
		<stop  offset="0" style="stop-color:#929497"/>
		<stop  offset="0.1245" style="stop-color:#757578"/>
		<stop  offset="0.2792" style="stop-color:#575658"/>
		<stop  offset="0.4403" style="stop-color:#403E3F"/>
		<stop  offset="0.6085" style="stop-color:#302D2E"/>
		<stop  offset="0.7884" style="stop-color:#262223"/>
		<stop  offset="1" style="stop-color:#231F20"/>
	</linearGradient>
	<path fill="url(#SVGID_2_)" d="M28.539,47.08c-0.681,3.91-1.192,7.65-1.872,11.563c17.857,6.125,35.375,0.85,44.73-15.137
		C59.488,29.73,46.227,41.123,28.539,47.08"/>

		<linearGradient id="SVGID_3_" gradientUnits="userSpaceOnUse" x1="332.834" y1="-495.0508" x2="351.3775" y2="-521.5339" gradientTransform="matrix(1 0 0 -1 -297.5996 -460.9004)">
		<stop  offset="0" style="stop-color:#231F20"/>
		<stop  offset="1" style="stop-color:#231F20;stop-opacity:0"/>
	</linearGradient>
	<path fill="url(#SVGID_3_)" d="M49.799,51.668c-8.164-1.701-17.009,2.555-23.131,6.975c-3.912-28.57,13.777-27.893,36.903-20.75
		c-1.529,6.975-4.083,16.33-8.502,21.941C54.9,56.09,53.2,53.541,49.799,51.668"/>

		<linearGradient id="SVGID_4_" gradientUnits="userSpaceOnUse" x1="299.7783" y1="-495.8018" x2="381.4121" y2="-495.8018" gradientTransform="matrix(1 0 0 -1 -297.5996 -460.9004)">
		<stop  offset="0" style="stop-color:#929497"/>
		<stop  offset="0.1245" style="stop-color:#757578"/>
		<stop  offset="0.2792" style="stop-color:#575658"/>
		<stop  offset="0.4403" style="stop-color:#403E3F"/>
		<stop  offset="0.6085" style="stop-color:#302D2E"/>
		<stop  offset="0.7884" style="stop-color:#262223"/>
		<stop  offset="1" style="stop-color:#231F20"/>
	</linearGradient>
	<path fill="url(#SVGID_4_)" d="M2.178,47.08c29.932-18.031,46.77-21.43,81.634-25C43.334,54.049,42.313,47.08,2.178,47.08"/>
	<line fill="none" stroke="#4A4A4C" stroke-width="0.5" x1="83.812" y1="22.246" x2="51.667" y2="45.545"/>
	<path opacity="0.23" fill="#231F20" enable-background="new    " d="M45.545,34.66C45.885,38.404,45.034,31.088,45.545,34.66"/>
	<line fill="none" stroke="#A8ABAD" stroke-width="0.5" x1="2.178" y1="47.08" x2="51.667" y2="45.545"/>
	<path fill="none" stroke="#F16922" stroke-width="0.5" d="M42.484,35.002C33.98,37.383,6.09,43.506,5.747,47.08
		C4.898,53.711,5.58,64.256,5.58,64.256"/>
	<path fill="#F16922" d="M8.131,89.596c-3.063-7.652-6.804-16.158-2.384-26.703C8.64,72.756,8.131,80.24,8.131,89.596"/>
	<path fill="#6D6E70" d="M41.076,33.844c0.708-0.25,1.384-0.17,1.509,0.184c0.126,0.355-0.344,0.846-1.052,1.096
		c-0.709,0.256-1.384,0.172-1.51-0.184C39.896,34.588,40.367,34.096,41.076,33.844z"/>
</svg>
